images/255921.svg

<?xml version="1.0" encoding="UTF-8"?>
<svg xmlns="http://www.w3.org/2000/svg" xmlns:xlink="http://www.w3.org/1999/xlink" width="300pt" height="300pt" viewBox="0 0 300 300" version="1.1">
<defs>
<g>
<symbol overflow="visible" id="glyph0-0">
<path style="stroke:none;" d="M 0.453125 1.59375 L 0.453125 -6.34375 L 4.953125 -6.34375 L 4.953125 1.59375 Z M 0.953125 1.09375 L 4.453125 1.09375 L 4.453125 -5.84375 L 0.953125 -5.84375 Z M 0.953125 1.09375 "/>
</symbol>
<symbol overflow="visible" id="glyph0-1">
<path style="stroke:none;" d="M 3.546875 -5.953125 C 2.898438 -5.953125 2.382812 -5.710938 2 -5.234375 C 1.625 -4.753906 1.4375 -4.101562 1.4375 -3.28125 C 1.4375 -2.445312 1.625 -1.789062 2 -1.3125 C 2.382812 -0.832031 2.898438 -0.59375 3.546875 -0.59375 C 4.191406 -0.59375 4.703125 -0.832031 5.078125 -1.3125 C 5.453125 -1.789062 5.640625 -2.445312 5.640625 -3.28125 C 5.640625 -4.101562 5.453125 -4.753906 5.078125 -5.234375 C 4.703125 -5.710938 4.191406 -5.953125 3.546875 -5.953125 Z M 3.546875 -6.6875 C 4.460938 -6.6875 5.195312 -6.375 5.75 -5.75 C 6.300781 -5.132812 6.578125 -4.3125 6.578125 -3.28125 C 6.578125 -2.238281 6.300781 -1.410156 5.75 -0.796875 C 5.195312 -0.179688 4.460938 0.125 3.546875 0.125 C 2.617188 0.125 1.878906 -0.179688 1.328125 -0.796875 C 0.773438 -1.410156 0.5 -2.238281 0.5 -3.28125 C 0.5 -4.3125 0.773438 -5.132812 1.328125 -5.75 C 1.878906 -6.375 2.617188 -6.6875 3.546875 -6.6875 Z M 3.546875 -6.6875 "/>
</symbol>
<symbol overflow="visible" id="glyph0-2">
<path style="stroke:none;" d="M 0.890625 -6.5625 L 2.078125 -6.5625 L 4.984375 -1.078125 L 4.984375 -6.5625 L 5.84375 -6.5625 L 5.84375 0 L 4.65625 0 L 1.75 -5.484375 L 1.75 0 L 0.890625 0 Z M 0.890625 -6.5625 "/>
</symbol>
<symbol overflow="visible" id="glyph0-3">
<path style="stroke:none;" d="M 0.890625 -6.5625 L 1.765625 -6.5625 L 1.765625 -3.875 L 5 -3.875 L 5 -6.5625 L 5.890625 -6.5625 L 5.890625 0 L 5 0 L 5 -3.125 L 1.765625 -3.125 L 1.765625 0 L 0.890625 0 Z M 0.890625 -6.5625 "/>
</symbol>
</g>
</defs>
<g id="surface28313">
<rect x="0" y="0" width="300" height="300" style="fill:rgb(100%,100%,100%);fill-opacity:1;stroke:none;"/>
<path style="fill:none;stroke-width:1.2;stroke-linecap:butt;stroke-linejoin:miter;stroke:rgb(100%,0%,0%);stroke-opacity:1;stroke-miterlimit:10;" d="M 74.46875 179.054688 L 72.605469 166.917969 "/>
<path style="fill:none;stroke-width:1.2;stroke-linecap:butt;stroke-linejoin:miter;stroke:rgb(0%,0%,0%);stroke-opacity:1;stroke-miterlimit:10;" d="M 72.605469 166.917969 L 70.746094 154.78125 "/>
<path style="fill:none;stroke-width:1.2;stroke-linecap:butt;stroke-linejoin:miter;stroke:rgb(0%,0%,0%);stroke-opacity:1;stroke-miterlimit:10;" d="M 52.527344 190.097656 L 63.496094 184.578125 "/>
<path style="fill:none;stroke-width:1.2;stroke-linecap:butt;stroke-linejoin:miter;stroke:rgb(100%,0%,0%);stroke-opacity:1;stroke-miterlimit:10;" d="M 63.496094 184.578125 L 74.46875 179.054688 "/>
<path style=" stroke:none;fill-rule:nonzero;fill:rgb(100%,100%,100%);fill-opacity:1;" d="M 70.46875 173.554688 L 78.46875 173.554688 L 78.46875 184.554688 L 70.46875 184.554688 Z M 70.46875 173.554688 "/>
<g style="fill:rgb(100%,0%,0%);fill-opacity:1;">
  <use xlink:href="#glyph0-1" x="70.46875" y="182.217773"/>
</g>
<path style="fill:none;stroke-width:1.2;stroke-linecap:butt;stroke-linejoin:miter;stroke:rgb(0%,0%,0%);stroke-opacity:1;stroke-miterlimit:10;" d="M 70.746094 154.78125 L 58.628906 152.796875 "/>
<path style="fill:none;stroke-width:1.2;stroke-linecap:butt;stroke-linejoin:miter;stroke:rgb(0%,0%,100%);stroke-opacity:1;stroke-miterlimit:10;" d="M 58.628906 152.796875 L 46.511719 150.816406 "/>
<path style="fill:none;stroke-width:1.2;stroke-linecap:butt;stroke-linejoin:miter;stroke:rgb(0%,0%,0%);stroke-opacity:1;stroke-miterlimit:10;" d="M 67.390625 160.085938 L 57.695312 158.5 "/>
<path style="fill:none;stroke-width:1.2;stroke-linecap:butt;stroke-linejoin:miter;stroke:rgb(0%,0%,100%);stroke-opacity:1;stroke-miterlimit:10;" d="M 57.695312 158.5 L 48 156.914062 "/>
<path style="fill:none;stroke-width:1.2;stroke-linecap:butt;stroke-linejoin:miter;stroke:rgb(0%,0%,0%);stroke-opacity:1;stroke-miterlimit:10;" d="M 70.746094 154.78125 L 88.199219 137.503906 "/>
<path style="fill:none;stroke-width:1.2;stroke-linecap:butt;stroke-linejoin:miter;stroke:rgb(0%,0%,100%);stroke-opacity:1;stroke-miterlimit:10;" d="M 46.511719 150.816406 L 35.25 172.644531 "/>
<path style=" stroke:none;fill-rule:nonzero;fill:rgb(100%,100%,100%);fill-opacity:1;" d="M 43.511719 145.316406 L 50.511719 145.316406 L 50.511719 156.316406 L 43.511719 156.316406 Z M 43.511719 145.316406 "/>
<g style="fill:rgb(0%,0%,100%);fill-opacity:1;">
  <use xlink:href="#glyph0-2" x="43.511719" y="153.979492"/>
</g>
<path style="fill:none;stroke-width:1.2;stroke-linecap:butt;stroke-linejoin:miter;stroke:rgb(0%,0%,100%);stroke-opacity:1;stroke-miterlimit:10;" d="M 35.25 172.644531 L 43.890625 181.371094 "/>
<path style="fill:none;stroke-width:1.2;stroke-linecap:butt;stroke-linejoin:miter;stroke:rgb(0%,0%,0%);stroke-opacity:1;stroke-miterlimit:10;" d="M 43.890625 181.371094 L 52.527344 190.097656 "/>
<path style="fill:none;stroke-width:1.2;stroke-linecap:butt;stroke-linejoin:miter;stroke:rgb(0%,0%,100%);stroke-opacity:1;stroke-miterlimit:10;" d="M 41.085938 170.324219 L 47.996094 177.304688 "/>
<path style="fill:none;stroke-width:1.2;stroke-linecap:butt;stroke-linejoin:miter;stroke:rgb(0%,0%,0%);stroke-opacity:1;stroke-miterlimit:10;" d="M 47.996094 177.304688 L 54.90625 184.285156 "/>
<path style=" stroke:none;fill-rule:nonzero;fill:rgb(100%,100%,100%);fill-opacity:1;" d="M 32.25 167.144531 L 39.25 167.144531 L 39.25 178.144531 L 32.25 178.144531 Z M 32.25 167.144531 "/>
<g style="fill:rgb(0%,0%,100%);fill-opacity:1;">
  <use xlink:href="#glyph0-2" x="32.25" y="175.807617"/>
</g>
<path style="fill:none;stroke-width:1.2;stroke-linecap:butt;stroke-linejoin:miter;stroke:rgb(0%,0%,0%);stroke-opacity:1;stroke-miterlimit:10;" d="M 52.527344 190.097656 L 48.5625 214.332031 "/>
<path style="fill:none;stroke-width:1.2;stroke-linecap:butt;stroke-linejoin:miter;stroke:rgb(0%,0%,0%);stroke-opacity:1;stroke-miterlimit:10;" d="M 88.199219 137.503906 L 111.890625 143.976562 "/>
<path style="fill:none;stroke-width:1.2;stroke-linecap:butt;stroke-linejoin:miter;stroke:rgb(0%,0%,0%);stroke-opacity:1;stroke-miterlimit:10;" d="M 92.09375 132.574219 L 111.046875 137.757812 "/>
<path style="fill:none;stroke-width:1.2;stroke-linecap:butt;stroke-linejoin:miter;stroke:rgb(0%,0%,0%);stroke-opacity:1;stroke-miterlimit:10;" d="M 81.964844 113.746094 L 88.199219 137.503906 "/>
<path style="fill:none;stroke-width:1.2;stroke-linecap:butt;stroke-linejoin:miter;stroke:rgb(0%,0%,0%);stroke-opacity:1;stroke-miterlimit:10;" d="M 111.890625 143.976562 L 129.34375 126.699219 "/>
<path style="fill:none;stroke-width:1.2;stroke-linecap:butt;stroke-linejoin:miter;stroke:rgb(0%,0%,0%);stroke-opacity:1;stroke-miterlimit:10;" d="M 129.34375 126.699219 L 153.035156 133.175781 "/>
<path style="fill:none;stroke-width:1.2;stroke-linecap:butt;stroke-linejoin:miter;stroke:rgb(0%,0%,0%);stroke-opacity:1;stroke-miterlimit:10;" d="M 129.34375 126.699219 L 123.105469 102.945312 "/>
<path style="fill:none;stroke-width:1.2;stroke-linecap:butt;stroke-linejoin:miter;stroke:rgb(0%,0%,0%);stroke-opacity:1;stroke-miterlimit:10;" d="M 123.132812 125.792969 L 118.140625 106.789062 "/>
<path style="fill:none;stroke-width:1.2;stroke-linecap:butt;stroke-linejoin:miter;stroke:rgb(0%,0%,0%);stroke-opacity:1;stroke-miterlimit:10;" d="M 153.035156 133.175781 L 170.488281 115.898438 "/>
<path style="fill:none;stroke-width:1.2;stroke-linecap:butt;stroke-linejoin:miter;stroke:rgb(0%,0%,0%);stroke-opacity:1;stroke-miterlimit:10;" d="M 158.84375 135.554688 L 172.808594 121.730469 "/>
<path style="fill:none;stroke-width:1.2;stroke-linecap:butt;stroke-linejoin:miter;stroke:rgb(0%,0%,0%);stroke-opacity:1;stroke-miterlimit:10;" d="M 159.269531 156.929688 L 153.035156 133.175781 "/>
<path style="fill:none;stroke-width:1.2;stroke-linecap:butt;stroke-linejoin:miter;stroke:rgb(0%,0%,0%);stroke-opacity:1;stroke-miterlimit:10;" d="M 170.488281 115.898438 L 194.179688 122.371094 "/>
<path style="fill:none;stroke-width:1.2;stroke-linecap:butt;stroke-linejoin:miter;stroke:rgb(0%,0%,0%);stroke-opacity:1;stroke-miterlimit:10;" d="M 194.179688 122.371094 L 204.511719 115.738281 "/>
<path style="fill:none;stroke-width:1.2;stroke-linecap:butt;stroke-linejoin:miter;stroke:rgb(0%,0%,100%);stroke-opacity:1;stroke-miterlimit:10;" d="M 204.511719 115.738281 L 214.84375 109.101562 "/>
<path style="fill:none;stroke-width:1.2;stroke-linecap:butt;stroke-linejoin:miter;stroke:rgb(0%,0%,0%);stroke-opacity:1;stroke-miterlimit:10;" d="M 200.414062 146.125 L 194.179688 122.371094 "/>
<path style="fill:none;stroke-width:1.2;stroke-linecap:butt;stroke-linejoin:miter;stroke:rgb(0%,0%,0%);stroke-opacity:1;stroke-miterlimit:10;" d="M 194.203125 145.21875 L 189.210938 126.214844 "/>
<path style="fill:none;stroke-width:1.2;stroke-linecap:butt;stroke-linejoin:miter;stroke:rgb(0%,0%,100%);stroke-opacity:1;stroke-miterlimit:10;" d="M 214.84375 109.101562 L 224.347656 116.875 "/>
<path style="fill:none;stroke-width:1.2;stroke-linecap:butt;stroke-linejoin:miter;stroke:rgb(0%,0%,0%);stroke-opacity:1;stroke-miterlimit:10;" d="M 224.347656 116.875 L 233.851562 124.652344 "/>
<path style=" stroke:none;fill-rule:nonzero;fill:rgb(100%,100%,100%);fill-opacity:1;" d="M 207.84375 103.601562 L 221.84375 103.601562 L 221.84375 114.601562 L 207.84375 114.601562 Z M 207.84375 103.601562 "/>
<g style="fill:rgb(0%,0%,100%);fill-opacity:1;">
  <use xlink:href="#glyph0-2" x="207.84375" y="112.264648"/>
  <use xlink:href="#glyph0-3" x="214.821289" y="112.264648"/>
</g>
<path style="fill:none;stroke-width:1.2;stroke-linecap:butt;stroke-linejoin:miter;stroke:rgb(0%,0%,0%);stroke-opacity:1;stroke-miterlimit:10;" d="M 234.585938 127.445312 L 246.460938 124.328125 "/>
<path style="fill:none;stroke-width:1.2;stroke-linecap:butt;stroke-linejoin:miter;stroke:rgb(100%,0%,0%);stroke-opacity:1;stroke-miterlimit:10;" d="M 246.460938 124.328125 L 258.339844 121.210938 "/>
<path style="fill:none;stroke-width:1.2;stroke-linecap:butt;stroke-linejoin:miter;stroke:rgb(0%,0%,0%);stroke-opacity:1;stroke-miterlimit:10;" d="M 233.117188 121.859375 L 244.992188 118.738281 "/>
<path style="fill:none;stroke-width:1.2;stroke-linecap:butt;stroke-linejoin:miter;stroke:rgb(100%,0%,0%);stroke-opacity:1;stroke-miterlimit:10;" d="M 244.992188 118.738281 L 256.871094 115.621094 "/>
<path style="fill:none;stroke-width:1.2;stroke-linecap:butt;stroke-linejoin:miter;stroke:rgb(0%,0%,0%);stroke-opacity:1;stroke-miterlimit:10;" d="M 233.851562 124.652344 L 224.933594 147.535156 "/>
<path style=" stroke:none;fill-rule:nonzero;fill:rgb(100%,100%,100%);fill-opacity:1;" d="M 253.605469 112.914062 L 261.605469 112.914062 L 261.605469 123.914062 L 253.605469 123.914062 Z M 253.605469 112.914062 "/>
<g style="fill:rgb(100%,0%,0%);fill-opacity:1;">
  <use xlink:href="#glyph0-1" x="253.605469" y="121.577148"/>
</g>
<path style="fill:none;stroke-width:1.2;stroke-linecap:butt;stroke-linejoin:miter;stroke:rgb(0%,0%,0%);stroke-opacity:1;stroke-miterlimit:10;" d="M 224.933594 147.535156 L 213.675781 169.363281 "/>
<path style="fill:none;stroke-width:1.2;stroke-linecap:butt;stroke-linejoin:miter;stroke:rgb(0%,0%,0%);stroke-opacity:1;stroke-miterlimit:10;" d="M 224.933594 147.535156 L 200.414062 146.125 "/>
<path style="fill:none;stroke-width:1.2;stroke-linecap:butt;stroke-linejoin:miter;stroke:rgb(0%,0%,0%);stroke-opacity:1;stroke-miterlimit:10;" d="M 249.464844 146.375 L 224.933594 147.535156 "/>
<path style="fill:none;stroke-width:1.2;stroke-linecap:butt;stroke-linejoin:miter;stroke:rgb(0%,0%,0%);stroke-opacity:1;stroke-miterlimit:10;" d="M 213.675781 169.363281 L 226.945312 190.027344 "/>
<path style="fill:none;stroke-width:1.2;stroke-linecap:butt;stroke-linejoin:miter;stroke:rgb(0%,0%,0%);stroke-opacity:1;stroke-miterlimit:10;" d="M 226.945312 190.027344 L 251.476562 188.863281 "/>
<path style="fill:none;stroke-width:1.2;stroke-linecap:butt;stroke-linejoin:miter;stroke:rgb(0%,0%,0%);stroke-opacity:1;stroke-miterlimit:10;" d="M 251.476562 188.863281 L 258.113281 199.195312 "/>
<path style="fill:none;stroke-width:1.2;stroke-linecap:butt;stroke-linejoin:miter;stroke:rgb(100%,0%,0%);stroke-opacity:1;stroke-miterlimit:10;" d="M 258.113281 199.195312 L 264.75 209.527344 "/>
<path style="fill:none;stroke-width:1.2;stroke-linecap:butt;stroke-linejoin:miter;stroke:rgb(0%,0%,0%);stroke-opacity:1;stroke-miterlimit:10;" d="M 251.476562 188.863281 L 262.738281 167.039062 "/>
<path style=" stroke:none;fill-rule:nonzero;fill:rgb(100%,100%,100%);fill-opacity:1;" d="M 257.75 204.027344 L 272.75 204.027344 L 272.75 215.027344 L 257.75 215.027344 Z M 257.75 204.027344 "/>
<g style="fill:rgb(100%,0%,0%);fill-opacity:1;">
  <use xlink:href="#glyph0-1" x="257.75" y="212.69043"/>
  <use xlink:href="#glyph0-3" x="265.091797" y="212.69043"/>
</g>
<path style="fill:none;stroke-width:1.2;stroke-linecap:butt;stroke-linejoin:miter;stroke:rgb(0%,0%,0%);stroke-opacity:1;stroke-miterlimit:10;" d="M 262.738281 167.039062 L 249.464844 146.375 "/>
<path style="fill:none;stroke-width:1.2;stroke-linecap:butt;stroke-linejoin:miter;stroke:rgb(0%,0%,0%);stroke-opacity:1;stroke-miterlimit:10;" d="M 200.414062 146.125 L 182.960938 163.40625 "/>
<path style="fill:none;stroke-width:1.2;stroke-linecap:butt;stroke-linejoin:miter;stroke:rgb(0%,0%,0%);stroke-opacity:1;stroke-miterlimit:10;" d="M 182.960938 163.40625 L 159.269531 156.929688 "/>
<path style="fill:none;stroke-width:1.2;stroke-linecap:butt;stroke-linejoin:miter;stroke:rgb(0%,0%,0%);stroke-opacity:1;stroke-miterlimit:10;" d="M 182.117188 157.183594 L 163.164062 152.003906 "/>
<path style="fill:none;stroke-width:1.2;stroke-linecap:butt;stroke-linejoin:miter;stroke:rgb(0%,0%,0%);stroke-opacity:1;stroke-miterlimit:10;" d="M 123.105469 102.945312 L 99.417969 96.46875 "/>
<path style="fill:none;stroke-width:1.2;stroke-linecap:butt;stroke-linejoin:miter;stroke:rgb(0%,0%,0%);stroke-opacity:1;stroke-miterlimit:10;" d="M 123.105469 102.945312 L 140.558594 85.667969 "/>
<path style="fill:none;stroke-width:1.2;stroke-linecap:butt;stroke-linejoin:miter;stroke:rgb(0%,0%,0%);stroke-opacity:1;stroke-miterlimit:10;" d="M 99.417969 96.46875 L 81.964844 113.746094 "/>
<path style="fill:none;stroke-width:1.2;stroke-linecap:butt;stroke-linejoin:miter;stroke:rgb(0%,0%,0%);stroke-opacity:1;stroke-miterlimit:10;" d="M 101.738281 102.304688 L 87.773438 116.125 "/>
</g>
</svg>

<svg xmlns="http://www.w3.org/2000/svg" xmlns:xlink="http://www.w3.org/1999/xlink" width="300pt" height="300pt" viewBox="0 0 300 300"><defs><symbol overflow="visible"><path d="M.453 1.594v-7.938h4.5v7.938zm.5-.5h3.5v-6.938h-3.5zm0 0"/></symbol><symbol overflow="visible" id="a"><path d="M3.547-5.953c-.65 0-1.164.242-1.547.72-.375.48-.563 1.13-.563 1.952 0 .835.188 1.49.563 1.967.383.48.898.72 1.547.72.644 0 1.156-.24 1.53-.72.376-.476.564-1.132.564-1.968 0-.822-.187-1.474-.562-1.954-.375-.477-.887-.72-1.53-.72zm0-.734c.914 0 1.648.312 2.203.937.55.617.828 1.438.828 2.47 0 1.042-.277 1.87-.828 2.483-.555.617-1.29.922-2.203.922-.93 0-1.668-.305-2.22-.922C.774-1.41.5-2.237.5-3.28c0-1.033.273-1.853.828-2.47.55-.625 1.29-.938 2.22-.938zm0 0"/></symbol><symbol overflow="visible" id="b"><path d="M.89-6.563H2.08l2.906 5.485v-5.484h.86V0H4.656L1.75-5.484V0H.89zm0 0"/></symbol><symbol overflow="visible" id="c"><path d="M.89-6.563h.876v2.688H5v-2.688h.89V0H5v-3.125H1.766V0H.89zm0 0"/></symbol></defs><g><path fill="#fff" d="M0 0h300v300H0z"/><path d="M74.47 179.055l-1.865-12.137" stroke-width="1.2" stroke="#f00" stroke-miterlimit="10" fill="none"/><path d="M72.605 166.918l-1.86-12.137M52.527 190.098l10.97-5.52" stroke-width="1.2" stroke="#000" stroke-miterlimit="10" fill="none"/><path d="M63.496 184.578l10.973-5.523" stroke-width="1.2" stroke="#f00" stroke-miterlimit="10" fill="none"/><path d="M70.47 173.555h8v11h-8zm0 0" fill="#fff"/><use xlink:href="#a" x="70.469" y="182.218" fill="#f00"/><path d="M70.746 154.78l-12.117-1.983" stroke-width="1.2" stroke="#000" stroke-miterlimit="10" fill="none"/><path d="M58.63 152.797l-12.118-1.98" stroke-width="1.2" stroke="#00f" stroke-miterlimit="10" fill="none"/><path d="M67.39 160.086l-9.695-1.586" stroke-width="1.2" stroke="#000" stroke-miterlimit="10" fill="none"/><path d="M57.695 158.5L48 156.914" stroke-width="1.2" stroke="#00f" stroke-miterlimit="10" fill="none"/><path d="M70.746 154.78L88.2 137.505" stroke-width="1.2" stroke="#000" stroke-miterlimit="10" fill="none"/><path d="M46.512 150.816l-11.262 21.83" stroke-width="1.2" stroke="#00f" stroke-miterlimit="10" fill="none"/><path d="M43.512 145.316h7v11h-7zm0 0" fill="#fff"/><use xlink:href="#b" x="43.512" y="153.979" fill="#00f"/><path d="M35.25 172.645l8.64 8.726" stroke-width="1.2" stroke="#00f" stroke-miterlimit="10" fill="none"/><path d="M43.89 181.37l8.637 8.728" stroke-width="1.2" stroke="#000" stroke-miterlimit="10" fill="none"/><path d="M41.086 170.324l6.91 6.98" stroke-width="1.2" stroke="#00f" stroke-miterlimit="10" fill="none"/><path d="M47.996 177.305l6.91 6.98" stroke-width="1.2" stroke="#000" stroke-miterlimit="10" fill="none"/><path d="M32.25 167.145h7v11h-7zm0 0" fill="#fff"/><use xlink:href="#b" x="32.25" y="175.808" fill="#00f"/><path d="M52.527 190.098l-3.965 24.234M88.2 137.504l23.69 6.473M92.094 132.574l18.953 5.184M81.965 113.746l6.234 23.758M111.89 143.977l17.454-17.278M129.344 126.7l23.69 6.476M129.344 126.7l-6.24-23.755M123.133 125.793l-4.992-19.004M153.035 133.176l17.453-17.278M158.844 135.555l13.965-13.825M159.27 156.93l-6.235-23.754M170.488 115.898l23.692 6.473M194.18 122.37l10.332-6.632" stroke-width="1.2" stroke="#000" stroke-miterlimit="10" fill="none"/><path d="M204.512 115.738l10.332-6.636" stroke-width="1.2" stroke="#00f" stroke-miterlimit="10" fill="none"/><path d="M200.414 146.125l-6.234-23.754M194.203 145.22l-4.992-19.005" stroke-width="1.2" stroke="#000" stroke-miterlimit="10" fill="none"/><path d="M214.844 109.102l9.504 7.773" stroke-width="1.2" stroke="#00f" stroke-miterlimit="10" fill="none"/><path d="M224.348 116.875l9.504 7.777" stroke-width="1.2" stroke="#000" stroke-miterlimit="10" fill="none"/><path d="M207.844 103.602h14v11h-14zm0 0" fill="#fff"/><g fill="#00f"><use xlink:href="#b" x="207.844" y="112.265"/><use xlink:href="#c" x="214.821" y="112.265"/></g><path d="M234.586 127.445l11.875-3.117" stroke-width="1.2" stroke="#000" stroke-miterlimit="10" fill="none"/><path d="M246.46 124.328l11.88-3.117" stroke-width="1.2" stroke="#f00" stroke-miterlimit="10" fill="none"/><path d="M233.117 121.86l11.875-3.122" stroke-width="1.2" stroke="#000" stroke-miterlimit="10" fill="none"/><path d="M244.992 118.738l11.88-3.117" stroke-width="1.2" stroke="#f00" stroke-miterlimit="10" fill="none"/><path d="M233.852 124.652l-8.918 22.883" stroke-width="1.2" stroke="#000" stroke-miterlimit="10" fill="none"/><path d="M253.605 112.914h8v11h-8zm0 0" fill="#fff"/><use xlink:href="#a" x="253.605" y="121.577" fill="#f00"/><path d="M224.934 147.535l-11.258 21.828M224.934 147.535l-24.52-1.41M249.465 146.375l-24.53 1.16M213.676 169.363l13.27 20.664M226.945 190.027l24.532-1.164M251.477 188.863l6.636 10.332" stroke-width="1.2" stroke="#000" stroke-miterlimit="10" fill="none"/><path d="M258.113 199.195l6.637 10.332" stroke-width="1.2" stroke="#f00" stroke-miterlimit="10" fill="none"/><path d="M251.477 188.863l11.26-21.824" stroke-width="1.2" stroke="#000" stroke-miterlimit="10" fill="none"/><path d="M257.75 204.027h15v11h-15zm0 0" fill="#fff"/><g fill="#f00"><use xlink:href="#a" x="257.75" y="212.69"/><use xlink:href="#c" x="265.092" y="212.69"/></g><path d="M262.738 167.04l-13.273-20.665M200.414 146.125l-17.453 17.28M182.96 163.406l-23.69-6.476M182.117 157.184l-18.953-5.18M123.105 102.945L99.418 96.47M123.105 102.945l17.454-17.277M99.418 96.47l-17.453 17.276M101.738 102.305l-13.965 13.82" stroke-width="1.2" stroke="#000" stroke-miterlimit="10" fill="none"/></g></svg>
